public/images/icons/veg.svg

<svg width="22" height="20" viewBox="0 0 22 20" fill="none" xmlns="http://www.w3.org/2000/svg">
<path d="M20.8617 0.379779C20.6478 -0.108437 20.0366 -0.127965 19.7807 0.33291C18.5966 2.4381 16.4766 3.75042 14.0548 3.75042H10.999C6.94996 3.75042 3.66493 7.10935 3.66493 11.2494C3.66493 11.5228 3.69548 11.7845 3.72222 12.0501C6.15926 10.2652 9.6773 8.74975 14.666 8.74975C15.0021 8.74975 15.2771 9.03096 15.2771 9.37467C15.2771 9.71837 15.0021 9.99958 14.666 9.99958C5.06297 9.99958 0.99106 16.0183 0.0895854 18.2797C-0.162522 18.9164 0.135423 19.6428 0.758052 19.9045C1.3845 20.1701 2.09498 19.8615 2.35473 19.2288C2.41203 19.0882 3.15307 17.358 5.10117 15.6902C6.33879 17.4048 8.69179 19.0413 11.782 18.7054C17.7791 18.2602 22 12.7609 22 6.02746C22 4.06678 21.5875 2.03581 20.8617 0.379779Z" fill="#BFBFC5"/>
</svg>

<svg xmlns="http://www.w3.org/2000/svg" width="22" height="20" fill="none" viewBox="0 0 22 20"><path fill="#BFBFC5" d="M20.862.38c-.214-.488-.825-.508-1.081-.047-1.184 2.105-3.304 3.417-5.726 3.417h-3.056c-4.049 0-7.334 3.36-7.334 7.5 0 .273.03.534.057.8 2.437-1.785 5.955-3.3 10.944-3.3a.62.62 0 0 1 .611.625.62.62 0 0 1-.611.625C5.063 10 .991 16.018.09 18.28a1.26 1.26 0 0 0 .668 1.624 1.215 1.215 0 0 0 1.597-.675c.057-.14.798-1.871 2.746-3.539 1.238 1.715 3.59 3.351 6.681 3.015C17.779 18.26 22 12.761 22 6.027c0-1.96-.413-3.991-1.138-5.647z"/></svg>
